!! 00000] TT[00
!! NN
!!!OTL: La mei hua
!!!ARE: Asia, China,ÿHebei, Shijiazhuang
!! Ethnic Group: Han
!! IV, 82, 2)
!!!SCT: C0386
!!!YEM: Copyright 1995, estate of Helmut Schaffrath.
**kern
*ICvox
*Ivox
!! Mixed meters:  4/4; 2/4
*M2/4
*k[b-]
*F:
{4g
8g
8a
8g
8f
8d
8f
=1
4.g
16a
16cc
4.g
8f
=2
8.cc
16ff
8dd
8cc
8b-
8cc
8a
8a}
=3
{4g
8g
8a
8g
8f
16d
16f
16c
16d
=4
4.f
8d
=5
8g
8g
8a
8g
=6
*M4/4
4.f
16g
16a
2f}
=7
{8cc
16cc
16ff
8dd
16dd
16cc
8.b-
16cc
8a
8a
=8
8cc
16cc
16ff
8dd
16dd
16cc
8.b-
16cc
8a
8a}
=9
{4g
8g
8a
8g
8f
8d
16c
16d
=10
*M2/4
4.f}
{8g
=11
*M4/4
8d
8f
8d
8f
4g
8g
8a
=12
4cc
8cc
8a
8cc
16dd
16ff
8cc
8a
=13
*M2/4
4g}
{4a
=14
8g
8a
8g
8f
=15
*M4/4
8f
8c
2d
4f
=16
4.g
8a
8f
16g
16a
8f
8d
=17
4.c
16d
16f
2c}
==
!!!AGN: Wuge, Lahua, Molihua diao,
!!    Chang "Xixiangji" de gushi
!! Typisch. Die eigentliche Tonweise heisst "die dan xiao". Die Text-
!!    form entsprich dem Moli Hua, d.h. man kann auf die vorliegende
!!    Melodie auch den Text von M.H. singen. Herr Jiang glaubt daher,
!!    dass es uspruenglich eine M.H. war.
!!    Glissando.
!!!ONB: ESAC (Essen Associative Code) Database: CHINA
!!!AMT: irregular
!!!AIN: vox
!!!EED: Helmut Schaffrath
!!!EEV: 1.0
*-
